X:2030
T:While some maids fair are going to market 
C:George Moore, Balladoole
O:Isle of Man
S:Traditional
Z:Clague collection
B:Kiaull Vannin #30
N:Time signature in manuscript is 4/4 
M:2/4 
L:1/8 
Q:120 
K:G 
G2|G2 B2|d3 c|BA BG|G2 FE|D2 F2|A3 G|FD EF|D2 D2| 
G2 A2|GF EA|G2 FD|EF GA|Bc d2|dc BG|A2 B2|G2|| 
